X:1
T:NYO Excerpt No. 4: Tchaikovsky Symphony No.6 Mvt.3
T:NYO Excerpt No. 4: Tchaikovsky Symphony No.6 Mvt.3
L:1/8
Q:1/4=180
M:4/4
K:Bb
V:1 treble nm="C Trumpet" snm="C Tpt."
V:1
!ff! e2- e z =e2- e z | f2- f z _g2- g z | e2- e z =e2- e z | =e z f z g z a z | a z a z a z z2 | %5
 z8 |!ff!!<(! d2 .A>A d2 A2!<)! |!fff! .=ea z2 z4 |!ff!!<(! d2 .A>A d2 A2!<)! | %9
!fff! .=ea z2 .Ad z2 | .=ea z2 .Ad z2 | !>!a4 !>!d4 | !>!A4 .D z z2 |!ff! d z .d>d d z d z | %14
 c z !tenuto!.c>c!<(! d4!<)! |!>(! d z d z d z d z!>)! |!f! c z (3!>!ccc !>!=B z z2 | %17
!ff!!<(! g z d z!>(! d z d z!<)!!>)! | c z (3!>!ccc !>!=B z z2 | d z z2 =B z z2 | %20
!ffff! !^!=e!^!f!^!g!^!_a !^!=a z z2 |!ff! =e z e z g z e z | !>!=e2 (3!>!eee gg z2 | %23
!ff! d z .d>d d z d z | c z !tenuto!.c>c!<(! d4!<)! |!>(! d z d z d z d z!>)! | %26
 c z (3!>!ccc !>!=B z z2 | g z d z d z d z | c z (3!>!ccc !>!=B z z2 | A z z2 c z z2 | %30
 A z z2 c z z2 | =B4- BB/B/ B2- | B4- B=B/B/ e z | =e z e z e z e z |!fff! !>!=e2- e z _e2- e z | %35
 !>!d2- d z _d2- d z | !>!c2- c z !>!_d2- d z | !>!d2- d z !>!e2- e z | !>!=e2- e z !>!e2- e z | %39
 !>!=e2- e z !>!e2- e z | !>!c2- c z !>!c2- c z | !>!c2- c z !>!c2- c z | %42
!ffff! !>!d2 (3ggg !>!e2 (3ggg | !>!=e2 (3ggg !>!_e2 (3ggg | d4 !>!=B2 !>!G2 | %45
!<(! !>!D2 (3DDD !^!d z z2!<)! |] %46

